buildsupport/Graphics/pictures/svg/foot.svg

<?xml version="1.0" encoding="UTF-8"?>
<svg xmlns="http://www.w3.org/2000/svg" xmlns:xlink="http://www.w3.org/1999/xlink" width="1024pt" height="2824pt" viewBox="0 0 1024 2824" version="1.1">
<g id="surface1">
<path style="fill-rule:nonzero;fill:rgb(100%,90.196078%,83.529412%);fill-opacity:1;stroke-width:10.301299;stroke-linecap:butt;stroke-linejoin:miter;stroke:rgb(87.058824%,66.666667%,52.941176%);stroke-opacity:1;stroke-miterlimit:4;" d="M 39.705431 2488.62364 C 77.942008 2862.880068 159.306303 3238.335317 381.207996 3508.304572 C 607.715216 3783.915936 1114.965718 3740.074818 1174.863058 3320.717236 C 1218.148883 3017.691145 927.495815 2599.042652 948.79446 2151.877537 C 968.022404 1748.186242 1222.514698 1544.289846 1304.730734 1281.304357 C 1409.092057 947.466031 1179.667494 656.030239 1179.667494 656.030239 C 1141.191205 -84.70814 815.239304 -30.929567 693.863545 49.972956 C 525.514481 1.8722 491.842628 165.406609 491.842628 165.406609 C 304.255418 88.44744 275.398202 357.804531 275.398202 357.804531 C 145.530526 348.18336 121.482846 607.91928 121.482846 607.91928 C -46.866219 742.595275 49.334704 1103.343293 49.334704 1103.343293 C -8.38483 1598.767306 -7.390281 2027.542006 39.715632 2488.62364 Z M 39.705431 2488.62364 " transform="matrix(0.765894,0,0,0.765727,0.0000138858,0)"/>
<path style="fill:none;stroke-width:2;stroke-linecap:butt;stroke-linejoin:miter;stroke:rgb(87.058824%,66.666667%,52.941176%);stroke-opacity:1;stroke-miterlimit:4;" d="M 317.620022 380.890376 C 388.279784 299.670073 306.389993 295.700425 306.389993 295.700425 " transform="matrix(3.94485,0,0,3.94399,-1115.291585,-698.309727)"/>
<path style="fill:none;stroke-width:2;stroke-linecap:butt;stroke-linejoin:miter;stroke:rgb(87.058824%,66.666667%,52.941176%);stroke-opacity:1;stroke-miterlimit:4;" d="M 511.759594 305.609689 C 493.930773 291.083036 465.537348 304.289444 465.537348 304.289444 " transform="matrix(3.94485,0,0,3.94399,-1115.291585,-698.309727)"/>
<path style="fill:none;stroke-width:2;stroke-linecap:butt;stroke-linejoin:miter;stroke:rgb(87.058824%,66.666667%,52.941176%);stroke-opacity:1;stroke-miterlimit:4;" d="M 472.799585 312.209921 C 425.250451 257.410359 369.790489 304.950061 369.790489 304.950061 " transform="matrix(3.94485,0,0,3.94399,-1115.291585,-698.309727)"/>
<path style="fill:none;stroke-width:2;stroke-linecap:butt;stroke-linejoin:miter;stroke:rgb(87.058824%,66.666667%,52.941176%);stroke-opacity:1;stroke-miterlimit:4;" d="M 375.070316 313.530166 C 358.491146 315.005908 359.6596 333.059486 349.316804 341.923845 " transform="matrix(3.94485,0,0,3.94399,-1115.291585,-698.309727)"/>
<path style="fill:none;stroke-width:2;stroke-linecap:butt;stroke-linejoin:miter;stroke:rgb(87.058824%,66.666667%,52.941176%);stroke-opacity:1;stroke-miterlimit:4;" d="M 335.449833 246.179861 C 397.52146 242.218136 360.542871 312.212893 360.542871 312.212893 C 363.184765 312.87351 361.863818 320.796959 361.863818 320.796959 " transform="matrix(3.94485,0,0,3.94399,-1115.291585,-698.309727)"/>
<path style="fill:none;stroke-width:2;stroke-linecap:butt;stroke-linejoin:miter;stroke:rgb(87.058824%,66.666667%,52.941176%);stroke-opacity:1;stroke-miterlimit:4;" d="M 378.369712 209.200135 C 412.707397 233.632089 386.953886 271.271442 386.953886 271.271442 C 392.897156 275.233167 390.256253 288.439575 390.256253 288.439575 " transform="matrix(3.94485,0,0,3.94399,-1115.291585,-698.309727)"/>
<path style="fill:none;stroke-width:2;stroke-linecap:butt;stroke-linejoin:miter;stroke:rgb(87.058824%,66.666667%,52.941176%);stroke-opacity:1;stroke-miterlimit:4;" d="M 417.990194 186.750033 C 454.30831 206.559645 428.554798 245.520234 428.554798 245.520234 C 431.196692 247.501096 428.554798 257.406397 428.554798 257.406397 " transform="matrix(3.94485,0,0,3.94399,-1115.291585,-698.309727)"/>
<path style="fill:none;stroke-width:2;stroke-linecap:butt;stroke-linejoin:miter;stroke:rgb(87.058824%,66.666667%,52.941176%);stroke-opacity:1;stroke-miterlimit:4;" d="M 421.289591 257.410359 C 435.817035 257.410359 433.176132 284.483793 433.176132 284.483793 " transform="matrix(3.94485,0,0,3.94399,-1115.291585,-698.309727)"/>
</g>
</svg>

<?xml version="1.0" encoding="UTF-8" standalone="no"?>
<svg
   xmlns:dc="http://purl.org/dc/elements/1.1/"
   xmlns:cc="http://creativecommons.org/ns#"
   xmlns:rdf="http://www.w3.org/1999/02/22-rdf-syntax-ns#"
   xmlns:svg="http://www.w3.org/2000/svg"
   xmlns="http://www.w3.org/2000/svg"
   xmlns:sodipodi="http://sodipodi.sourceforge.net/DTD/sodipodi-0.dtd"
   xmlns:inkscape="http://www.inkscape.org/namespaces/inkscape"
   id="svg2"
   viewBox="0 0 1337.1129 3687.5406"
   version="1.1"
   inkscape:version="0.91 r13725"
   sodipodi:docname="foot.svg"
   width="1337.1129"
   height="3687.5405">
  <defs
     id="defs30" />
  <sodipodi:namedview
     pagecolor="#ffffff"
     bordercolor="#666666"
     borderopacity="1"
     objecttolerance="10"
     gridtolerance="10"
     guidetolerance="10"
     inkscape:pageopacity="0"
     inkscape:pageshadow="2"
     inkscape:window-width="1855"
     inkscape:window-height="1056"
     id="namedview28"
     showgrid="false"
     fit-margin-top="0"
     fit-margin-left="0"
     fit-margin-right="0"
     fit-margin-bottom="0"
     inkscape:zoom="0.2660744"
     inkscape:cx="-368.45889"
     inkscape:cy="2399.6683"
     inkscape:window-x="65"
     inkscape:window-y="24"
     inkscape:window-maximized="1"
     inkscape:current-layer="svg2" />
  <path
     id="path2997"
     style="color:#000000;fill:#ffe6d5;stroke:#deaa87;stroke-width:10.3012991"
     d="m 39.704527,2488.6238 c 38.2363,374.2581 119.600703,749.7091 341.505803,1019.6798 226.5032,275.6138 733.75337,231.769 793.65057,-187.5879 43.2892,-303.0237 -247.36267,-721.672 -226.06467,-1168.8365 19.2277,-403.6918 273.71737,-607.587 355.93207,-870.5739 C 1409.0921,947.46629 1179.668,656.02949 1179.668,656.02949 1141.1921,-84.707762 815.23823,-30.927722 693.86353,49.971728 525.51413,1.8724978 491.84423,165.40766 491.84423,165.40766 304.25643,88.448678 275.39873,357.80259 275.39873,357.80259 c -129.8673,-9.6198 -153.918,250.1154 -153.918,250.1154 -168.349303,134.6795 -72.146803,495.42381 -72.146803,495.42381 -57.7204998,495.4237 -56.7264998,924.201 -9.6197,1385.282 z"
     inkscape:connector-curvature="0" />
  <g
     id="g3018"
     transform="matrix(5.1506495,0,0,5.1506495,-1456.1962,-911.95692)"
     style="fill:none;stroke:#deaa87;stroke-width:2">
    <path
       id="path3002"
       style="color:#000000"
       d="M 317.62,380.89 C 388.28,299.67 306.39,295.7 306.39,295.7"
       inkscape:connector-curvature="0" />
    <path
       id="path3004"
       style="color:#000000"
       d="m 511.76,305.61 c -17.829,-14.527 -46.223,-1.3207 -46.223,-1.3207"
       inkscape:connector-curvature="0" />
    <path
       id="path3006"
       style="color:#000000"
       d="m 472.8,312.21 c -47.55,-54.8 -103.01,-7.26 -103.01,-7.26"
       inkscape:connector-curvature="0" />
    <path
       id="path3008"
       style="color:#000000"
       d="m 375.07,313.53 c -16.579,1.4758 -15.41,19.529 -25.753,28.394"
       inkscape:connector-curvature="0" />
    <path
       id="path3010"
       style="color:#000000"
       d="m 335.45,246.18 c 62.071,-3.962 25.093,66.033 25.093,66.033 2.6413,0.66033 1.3207,8.5843 1.3207,8.5843"
       inkscape:connector-curvature="0" />
    <path
       id="path3012"
       style="color:#000000"
       d="m 378.37,209.2 c 34.337,24.432 8.5843,62.071 8.5843,62.071 5.943,3.962 3.3017,17.169 3.3017,17.169"
       inkscape:connector-curvature="0" />
    <path
       id="path3014"
       style="color:#000000"
       d="m 417.99,186.75 c 36.318,19.81 10.565,58.77 10.565,58.77 2.6413,1.981 0,11.886 0,11.886"
       inkscape:connector-curvature="0" />
    <path
       id="path3016"
       style="color:#000000"
       d="m 421.29,257.41 c 14.527,0 11.886,27.074 11.886,27.074"
       inkscape:connector-curvature="0" />
  </g>
  <metadata
     id="metadata26">
    <rdf:RDF>
      <cc:Work>
        <dc:format>image/svg+xml</dc:format>
        <dc:type
           rdf:resource="http://purl.org/dc/dcmitype/StillImage" />
        <cc:license
           rdf:resource="http://creativecommons.org/publicdomain/zero/1.0/" />
        <dc:publisher>
          <cc:Agent
             rdf:about="http://openclipart.org/">
            <dc:title>Openclipart</dc:title>
          </cc:Agent>
        </dc:publisher>
        <dc:title>Feet Soles</dc:title>
        <dc:date>2013-08-29T01:22:32</dc:date>
        <dc:description>Just a female soles.</dc:description>
        <dc:source>https://openclipart.org/detail/182537/feet-soles-by-solvera-182537</dc:source>
        <dc:creator>
          <cc:Agent>
            <dc:title>SOlvera</dc:title>
          </cc:Agent>
        </dc:creator>
        <dc:subject>
          <rdf:Bag>
            <rdf:li>Beach</rdf:li>
            <rdf:li>Feet</rdf:li>
            <rdf:li>Female</rdf:li>
            <rdf:li>Soles</rdf:li>
            <rdf:li>Sun</rdf:li>
            <rdf:li>Toes</rdf:li>
          </rdf:Bag>
        </dc:subject>
      </cc:Work>
      <cc:License
         rdf:about="http://creativecommons.org/publicdomain/zero/1.0/">
        <cc:permits
           rdf:resource="http://creativecommons.org/ns#Reproduction" />
        <cc:permits
           rdf:resource="http://creativecommons.org/ns#Distribution" />
        <cc:permits
           rdf:resource="http://creativecommons.org/ns#DerivativeWorks" />
      </cc:License>
    </rdf:RDF>
  </metadata>
</svg>
